X:1
T:King Porter Stomp
T:KING PORTER STOMP
T:By FERD “Jelly Roll” MORTON
T:Public Domain in the EU
T:Public Domain in the EU
T:Public Domain in the EU
C:Jelly Roll Morton
Z:Public Domain in the EU
%%score { ( 1 3 ) | 2 }
L:1/8
Q:1/2=80
M:2/2
K:Ab
V:1 treble nm="Piano" snm="Pno."
V:3 treble 
V:2 bass 
V:1
!f!!8va(! (3c'd'c' =b>c' [g=d'g'] [fd'f']3!8va)! | (3cdc =B>c [G=dg] [Fdf]3 | g>b_g>b f>b_f>b | %3
 [de]2 z2 [dge']2 z2 ||"^[A]" E2 EF EF E2 | E2 EF EF E2 | z B=AB [dg]3 [df] | =A B2 [dg]- [dg]fdB | %8
 z G^FG [Gd=f] [Gde]3 | ^F G3 [Gd=f] [Gde]3 | z c=Bc [Aeg]2 [A=df]2 | (e=d_d=A cBGF) | %12
 E2 EF EF E2 | E2 EF EF E2 | z B=AB [dg]3 [df] | =A B2 [dg]- [dg]fdB | z B=AB [G=Bg]3 f | %17
 [cf]ecA [F=Ad]2 [EAc]2 | [=D_Ac]AB[_DAc]- [DAc]A [DGB]2 |1 [CEA]2 [_Gcf]e [=Gdf][Gde] z2 :|2 %20
 [CEA]2 [=D=d][Ee] [=E=e][Ff][^F^f][Gg] ||!mf!"^[B]" z (f[Aa]c f[Aa]- [Aa]2) | %22
 z (=e[Gg]c e[Gg]- [Gg]2) | z (c[Ff]=A c[Ff]- [Ff]2) | z (d[Ff]B d[Ff]- [Ff]2) | %25
 z (cA[Fcf]- [Fcf]ecA) | z ([B=dg][=Adg][_Adg]- [Adg]2 ef) | [Gde] z z2 z4 | %28
 z2 ([Ee][Ff] [Gg][Aa][Bb][=B=b]) | z (a[cc']f a[cc']- [cc']2) | z (g[Bb]=e g[Bb]- [Bb]2) | %31
 z (f[Aa]c f[Aa]- [Aa]2) | [Bdfb]3 [Aa] [Bb][Aa][Gg][Ff] | z [Ace]f[Ace]- [Ace]f [Ace]2 | %34
 z [Gde]f[Gde]- [Gde]f [Gde]2 | [Aca]2 z2 z4 | z [Ge][G=Bf]B [Ac]2 z2 || %37
!f!"^Interlude" [Aa]!<(![Gg][Aa][Bb] [cc'][Gg][Aa][Bb] | [cc'][=B=b][cc'][dd']!<)! [ee']2 z2 | %39
!8va(! [aa']2 [gg'][_g_g']- [gg'][ff'][ee'][dd'] | [cc']2 [Bb][Aa]- [Aa]2!8va)! !>![Aa]2 || %41
[K:Db]!p!"^Trio""^[C]" [Ada]2 [Gdg]2 [Ada]2 [Gdg]2 | [=G=e] [Af]2 [Fd]- [Fd]2 [Ada]2 | %43
 [Ada]2 [Gdg]2 [Ada]2 [Gdg]2 | [=G=e] [Af]2 [Fd]- [Fd]2 [Ada]2 | [Ada]2 [Gdg]2 [Ada]2 [Gdg]2 | %46
 [=G=e] [Af]2 [A=db]- [Adb]4 | z2 [E=Gc]B [EGc]e [DGc]2 | [E=Ge] [DGc]2 [C_GA]- [CGA]2 [Ada]2 | %49
 [Ada]2 [Gdg]2 [Ada]2 [Gdg]2 | [=G=e] [Af]2 [Fd]- [Fd]2 [Ada]2 | [Ada]2 [Gdg]2 [Ada]2 [Gdg]2 | %52
 [=G=e] [Af]2 [Fd]- [Fd]2 [Ada]2 | [Ada]2 [Gdg]2 [Ada]2 [Gdg]2 | [=G=e] [Af]2 [A=db]- [Adb]4 | %55
 z =e[=Gdf]e [_Gd] [Gce]3 | [FAd]2 z2 z4 ||"^Stomp" [GBd]2 z2 [=EBd]2 z2 | %58
 [FAd]2 z [F=Ad]- [FAd]2 [FAd]2 | [GBd]2 z2 [=EBd]2 z2 | [FAd]2 z [F=Ad]- [FAd]2 [FAd]2 | %61
 [GBd]2 z2 [=EBd]2 z2 | [FAd]2 z [FAd]- [FAd]2 [FAd]2 | z2 [D=Gc]B [EGc]e [DGc]2 | %64
 [E=Ge] [EGc]2 [C_GA]- [CGA]2 [_CFA]2 | [GBd]2 z2 [=EBd]2 z2 | [FAd]2 z [F=Ad]- [FAd]2 [FAd]2 | %67
 [GBd]2 z2 [=EBd]2 z2 | [FAd]2 z [F=Ad]- [FAd]2 [FAd]2 | [GBd]2 z2 [=EBd]2 z2 | %70
 [FAd]2 z [FAd]- [FAd]2 [FAd]2 | z =e[=Gdf]e [_Gd] [Gce]3 | %72
 [FAd]2 [=e=e'][ee']- [ee'][dd'] [_e_e']2 || [dd']2 z2 z4 | z2 [=e=e'][ee']- [ee'][dd'] [_e_e']2 | %75
 [dd']2 z2 z4 | z2 [=e=e'][ee']- [ee'][dd'] [_e_e']2 | [dd']2 z2 z4 | =e f2 B- B4 | %79
 z2 [C=Gc]B [EGc]e [DGc]2 | [E=Ge] [EGc]2 [C_GA]- [CGA]2 [=e=e']2 | %81
 [=e=e']2 z2 [dd']>[_e_e'][dd']>[ee'] | [dd']2 z2 z2 [=e=e']2 | %83
 [=e=e']2 z2 [dd']>[_e_e'][dd']>[ee'] | [dd']2 z2 z2 [=e=e']2 | %85
 [=e=e']2 z2 [dd']>[_e_e'][dd']>[ee'] | [=e=e'][dd'][_e_e'][dd']- [dd']2 [=e=e'][dd'] | %87
 [_e_e']2 [dd']2 [=e=e'][dd'] [_e_e']2 | [dd']2 [=e=e'][dd'] [_e_e']2 [dd']2 || %89
 [=e=e'][dd'] [_e_e']2 [dd']2 ab | !fermata![f_c'e']6 z2!fine! |] %91
V:2
!8va(! [EAc]2 z2 [=DA=B]4!8va)! | [E,A,C]2 z2 [=D,A,=B,]4 |[K:treble] [EB]2 [=EB]2 [FB]2 [^FB]2 | %3
 [GB]2 z2[K:bass] [E,,B,,G,]2 z2 ||!mf! [A,,E,]2 [A,,E,]2 [A,,E,]2 [_G,,_D,]2 | %5
 [F,,C,]2 [F,,C,]2 [F,,C,]2 [F,,C,]2 | [B,,,B,,]2 [F,B,D]2 [B,,B,]2 [F,B,D]2 | %7
 [D,D]2 [F,B,D]2 [B,,B,]2 [F,B,D]2 | [E,,E,]2 [E,G,D]2 [B,,B,]2 [E,G,D]2 | %9
 [E,,E,]2 [E,G,D]2 [B,,B,]2 [E,G,D]2 | [A,,A,]2 [E,A,C]2 [C,C]2 [_C,_C]2 | [B,,B,] z z2 z4 | %12
 [A,,E,]2 [A,,E,]2 [A,,E,]2 [_G,,D,]2 | [F,,C,]2 [F,,C,]2 [F,,C,]2 [F,,C,]2 | %14
 [B,,,B,,]2 [F,B,D]2 [B,,B,]2 [F,B,D]2 | [D,D]2 [F,B,D]2 [B,,B,]2 [F,B,D]2 | %16
 [D,,D,]2 [A,DF]2 [=D,,=D,]2 [G,=B,F]2 | [A,,E,]2 [E,A,C]2 [F,,F,]2 [F,,F,]2 | %18
 [B,,F,]4 [E,,E,]2 [E,,E,]2 |1 [A,,E,]2 [=A,,=A,]2 [B,,B,]2 [E,,E,]2 :|2 [A,,E,]2 z2 z4 || %21
 [F,,F,]2 [F,A,C]2 [G,,G,]2 [F,,F,]2 | [=E,,=E,]2 [G,B,=E]2 [C,C]2 [B,,B,]2 | %23
 [=A,,=A,]2 [F,A,E]2 [F,,F,]2 [F,A,E]2 | [B,,B,]2 [F,B,D]2 [B,,B,]2 [=B,,=B,]2 | %25
 [C,C]2 [E,A,C]2 [G,,G,]2 [F,,F,]2 | [B,,B,]2 [A,B,=D]2 [F,,F,]2 [A,B,D]2 | %27
"^marcato" [E,,E,] [D,,D,]2 [B,,,B,,]- [B,,,B,,]B,, B,,2 | E,,2 z2 z4 | %29
 [F,,F,]2 [F,A,C]2 [G,,G,]2 [F,,F,]2 | [=E,,=E,]2 [B,C=E]2 [C,,C,]2 [B,CE]2 | %31
 [F,,F,]2 [F,A,C]2 [F,,F,]2 [E,,E,]2 | [D,,D,]2 [A,DF]2 [=D,,=D,]2 [F,,F,]2 | %33
 [A,,A,]2 [E,A,C]2 [A,,A,]2 [E,,E,]2 | [B,,B,]2 [E,G,D]2 [B,,B,]2 [E,,E,]2 | %35
 [A,,A,]2 [F,,F,][E,,E,] [E,,E,]2 [C,,C,]2 | [A,,,A,,]2 [G,,=D,=B,]2 [A,,E,C]2 z2 || %37
 [A,,A,][G,,G,][A,,A,][B,,B,] [C,C][G,,G,][A,,A,][B,,B,] | [C,C][=B,,=B,][C,C][D,D] [E,E]2 z2 | %39
!8va(! [A,A]2 [G,G][_G,_G]- [G,G][F,F][E,E][D,D] | [C,C]2 [B,,B,][A,,A,]- [A,,A,]2!8va)! z2 || %41
[K:Db] [B,,B,]4 [=A,,=A,]4 | [_A,,_A,]2 [A,DF]2 [D,D]2 [_C,_C]2 | [B,,B,]4 [=A,,=A,]4 | %44
 [_A,,_A,]2 [A,DF]2 [D,D]2 [_C,_C]2 | [B,,B,]4 [=A,,=A,]4 | %46
 [_A,,_A,]2 [=A,,=A,]2 [B,,B,]2 [_A,,_A,]2 | [=G,,=G,]2 z2 [E,,E,]2 z2 | %48
 [B,,B,]2 [E,,E,]2 [A,,A,]2 [_C,_C]2 | [B,,B,]4 [=A,,=A,]4 | [_A,,_A,]2 [A,DF]2 [D,D]2 [_C,_C]2 | %51
 [B,,B,]4 [=A,,=A,]4 | [_A,,_A,]2 [A,DF]2 [D,D]2 [_C,_C]2 | [B,,B,]4 [=A,,=A,]4 | %54
 [_A,,_A,]2 [=A,,=A,]2 [B,,B,]2 [_A,,_A,]2 | [=G,,=G,]2 [E,B,D]2 [A,,A,]2 [A,,A,]2 | %56
 [D,D]2 [D,,D,]2 [E,,E,]2 [F,,F,]2 || [G,,G,]2 [G,B,D]2 [=G,,=G,]2 [G,B,D]2 | %58
 [A,,A,]2 [F,_CD]2 [D,,D,]2 [F,CD]2 | [G,,G,]2 [G,B,D]2 [=G,,=G,]2 [G,B,D]2 | %60
 [A,,A,]2 [F,_CD]2 [D,,D,]2 [F,CD]2 | [G,,G,]2 [G,B,D]2 [=G,,=G,]2 [G,B,D]2 | %62
 [A,,A,]2 z2 [B,,B,]2 [A,,A,]2 | [=G,,=G,]2 z2 [E,,E,]4 | [B,,B,]2 [E,,E,]2 [A,,A,]2 [D,,D,]2 | %65
 [G,,G,]2 [G,B,D]2 [=G,,=G,]2 [G,B,D]2 | [A,,A,]2 [F,_CD]2 [D,,D,]2 [F,CD]2 | %67
 [G,,G,]2 [G,B,D]2 [=G,,=G,]2 [G,B,D]2 | [A,,A,]2 [F,_CD]2 [D,,D,]2 [F,CD]2 | %69
 [G,,G,]2 [G,B,D]2 [=G,,=G,]2 [G,B,D]2 | [A,,A,]2 z2 [B,,B,]2 [A,,A,]2 | %71
 [=G,,=G,]2 [E,B,D]2 [A,,A,]2 [A,,A,]2 | [D,D]2 [D,,D,]2 [!courtesy!_E,,!courtesy!_E,]2 [F,,F,]2 || %73
 [G,,G,]2 [G,B,D]2 [=G,,=G,]2 [G,B,D]2 | [A,,A,]2 [A,_CDF]2 [D,,D,]2 [A,CDF]2 | %75
 [G,,G,]2 [G,B,D]2 [=G,,=G,]2 [G,B,D]2 | [A,,A,]2 [A,_CDF]2 [D,,D,]2 [A,CDF]2 | %77
 [G,,G,]2 [G,B,D]2 [=G,,=G,]2 [G,B,D]2 | [A,,A,]2 [=A,,=A,]2 [B,,B,]2 [_A,,_A,]2 | %79
 [=G,,=G,]2 z2 [E,,E,]4 | [B,,B,]2 [E,,E,]2 [A,,A,]2 [D,,D,]2 | %81
 [G,,G,]2 [G,B,D]2 [=G,,=G,]2 [G,B,D]2 | [A,,A,]2 [A,_CDF]2 [D,,D,]2 [A,CDF]2 | %83
 [G,,G,]2 [G,B,D]2 [=G,,=G,]2 [G,B,D]2 | [A,,A,]2 [A,_CDF]2 [D,,D,]2 [A,CDF]2 | %85
 [G,,G,]2 [G,B,D]2 [=G,,=G,]2 [G,B,D]2 | [A,,A,]2 [=A,,=A,]2 [B,,B,]2 [_A,,_A,]2 | %87
 [=G,,=G,]4 [_G,,_G,]4 | [F,,F,]2 [B,,B,]2 [=A,,=A,]2 [_A,,_A,]2 || %89
 [=G,,=G,]2 [_G,,_G,]2 [F,,F,]2 [A,,A,]2 | !fermata![D,,D,]6 z2 |] %91
V:3
!8va(! x8!8va)! | x8 | d2 d2 d2 d2 | x8 || C2 C2 C2 B,2 | =A,2 A,2 A,2 A,2 | x8 | x8 | x8 | x8 | %10
 x8 | (G4 D4) | C2 C2 C2 B,2 | =A,2 A,2 A,2 A,2 | x8 | x8 | x8 | x8 | x8 |1 x8 :|2 x8 || x8 | x8 | %23
 x8 | x8 | x8 | x8 | x8 | x8 | x8 | x8 | x8 | x8 | x8 | x8 | x8 | x8 || x8 | x8 |!8va(! x8 | %40
 x6!8va)! x2 ||[K:Db] x8 | x8 | x8 | x8 | x8 | x8 | x8 | x8 | x8 | x8 | x8 | x8 | x8 | x8 | x8 | %56
 x8 || x8 | x8 | x8 | x8 | x8 | x8 | x8 | x8 | x8 | x8 | x8 | x8 | x8 | x8 | x8 | x8 || x8 | x8 | %75
 x8 | x8 | x8 | x8 | x8 | x8 | x8 | x8 | x8 | x8 | x8 | x8 | x8 | x8 || x8 | x8 |] %91

